X:408
T:European Hinge Jig
M:6/8
Q:3/8=120
C:© Paul Gitlitz 2017
K:G
"Bm"Bcd "G"Bcd|"D7"Bcd "G"g2a|bgd "D7"afc|"C+9"gdc "G"B2A|!
"Bm"Bcd "G"Bcd|"D7"Bcd "G"g2a|bga "D"fda|1"G"g3-g2A:|2"G"g3-g2D|!
|:"Am"E2G cBA|"Bm"F2A dcB|"C"G2B edc|"G/D"BGA "Bm"FGB|!
"Em"E2G cBA|"D/F#"F2A dcB|"G"G2B eda|"Em"gfe "G"dBG:||

